public/mobile/assets/images/icons/blue/register.svg

<?xml version="1.0"?>
<svg xmlns="http://www.w3.org/2000/svg" xmlns:xlink="http://www.w3.org/1999/xlink" xmlns:svgjs="http://svgjs.com/svgjs" version="1.1" width="512" height="512" x="0" y="0" viewBox="0 0 512 512" style="enable-background:new 0 0 512 512" xml:space="preserve" class=""><g><path xmlns="http://www.w3.org/2000/svg" d="m146 492c0 11.046875-8.953125 20-20 20h-46c-44.113281 0-80-35.886719-80-80v-352c0-44.113281 35.886719-80 80-80h245.890625c44.109375 0 80 35.886719 80 80v119c0 11.046875-8.957031 20-20 20-11.046875 0-20-8.953125-20-20v-119c0-22.054688-17.945313-40-40-40h-245.890625c-22.054688 0-40 17.945312-40 40v352c0 22.054688 17.945312 40 40 40h46c11.046875 0 20 8.953125 20 20zm179.886719-352c0-11.046875-8.953125-20-20-20h-206c-11.042969 0-20 8.953125-20 20s8.957031 20 20 20h206c11.046875 0 20-8.953125 20-20zm-79.886719 80c0-11.046875-8.953125-20-20-20h-126.113281c-11.042969 0-20 8.953125-20 20s8.957031 20 20 20h126.113281c11.046875 0 20-8.953125 20-20zm-146.113281 60c-11.042969 0-20 8.953125-20 20s8.957031 20 20 20h83.113281c11.046875 0 20-8.953125 20-20s-8.953125-20-20-20zm348.921875 217.121094c-7.695313 9.457031-19.050782 14.878906-31.15625 14.878906h-195.304688c-12.171875 0-23.5625-5.417969-31.25-14.863281-7.734375-9.503907-10.738281-21.851563-8.242187-33.875 6.460937-31.125 23.574219-59.445313 48.183593-79.746094 9.320313-7.6875 19.5625-14.085937 30.421876-19.085937-12.101563-13.746094-19.460938-31.757813-19.460938-51.464844 0-43.011719 34.988281-78 78-78s78 34.988281 78 78c0 19.707031-7.359375 37.71875-19.460938 51.464844 10.859376 5 21.101563 11.394531 30.421876 19.085937 24.117187 19.894531 41.03125 47.492187 47.78125 77.878906.15625.527344.289062 1.058594.402343 1.601563 2.507813 12.09375-.53125 24.53125-8.335937 34.125zm-166.808594-184.15625c0 20.953125 17.046875 38 38 38s38-17.046875 38-38-17.046875-38-38-38-38 17.046875-38 38zm135.988281 158.46875c-.003906-.011719-.007812-.027344-.007812-.039063-9.605469-46.253906-50.8125-79.828125-97.980469-79.828125s-88.378906 33.574219-97.980469 79.828125c-.089843.449219.21875.59375.21875.597657.007813 0 .042969.007812.109375.007812h195.304688c.011718-.011719.28125-.214844.335937-.566406zm0 0" fill="#83cbf8" data-original="#000000" style=""/></g></svg>

<?xml version="1.0" encoding="utf-8"?>
<!-- Generator: Adobe Illustrator 23.0.1, SVG Export Plug-In . SVG Version: 6.00 Build 0)  -->
<svg version="1.1" id="Layer_1" xmlns:svgjs="http://svgjs.com/svgjs"
	 xmlns="http://www.w3.org/2000/svg" xmlns:xlink="http://www.w3.org/1999/xlink" x="0px" y="0px" viewBox="0 0 512 512"
	 style="enable-background:new 0 0 512 512;" xml:space="preserve">
<style type="text/css">
	.st0{fill:#4D91C6;}
</style>
<g>
	<path class="st0" d="M146,492c0,11-9,20-20,20H80c-44.1,0-80-35.9-80-80V80C0,35.9,35.9,0,80,0h245.9c44.1,0,80,35.9,80,80v119
		c0,11-9,20-20,20c-11,0-20-9-20-20V80c0-22.1-17.9-40-40-40H80c-22.1,0-40,17.9-40,40v352c0,22.1,17.9,40,40,40h46
		C137,472,146,481,146,492z M325.9,140c0-11-9-20-20-20h-206c-11,0-20,9-20,20s9,20,20,20h206C316.9,160,325.9,151,325.9,140z
		 M246,220c0-11-9-20-20-20H99.9c-11,0-20,9-20,20s9,20,20,20H226C237,240,246,231,246,220z M99.9,280c-11,0-20,9-20,20s9,20,20,20
		H183c11,0,20-9,20-20s-9-20-20-20H99.9z M448.8,497.1c-7.7,9.5-19.1,14.9-31.2,14.9H222.3c-12.2,0-23.6-5.4-31.3-14.9
		c-7.7-9.5-10.7-21.9-8.2-33.9c6.5-31.1,23.6-59.4,48.2-79.7c9.3-7.7,19.6-14.1,30.4-19.1C249.4,350.7,242,332.7,242,313
		c0-43,35-78,78-78s78,35,78,78c0,19.7-7.4,37.7-19.5,51.5c10.9,5,21.1,11.4,30.4,19.1c24.1,19.9,41,47.5,47.8,77.9
		c0.2,0.5,0.3,1.1,0.4,1.6C459.7,475.1,456.6,487.5,448.8,497.1z M282,313c0,21,17,38,38,38s38-17,38-38s-17-38-38-38
		S282,292,282,313z M418,471.4C418,471.4,418,471.4,418,471.4c-9.6-46.3-50.8-79.9-98-79.9s-88.4,33.6-98,79.8
		c-0.1,0.4,0.2,0.6,0.2,0.6c0,0,0,0,0.1,0h195.3C417.7,472,417.9,471.8,418,471.4z"/>
</g>
</svg>
